X: 9161
T: Dálaigh's
R: polka
M: 2/4
K: Edorian
|:D|E>F GA|Be dB|A>B AF|EF D2|
E>F GA|Be dB|AF dF|FE E-:|
|:E|Be ed/e/|fe dA|Be ed/e/|fe d2|
Be ed/e/|f/g/f/e/ dA|BA dF|FE E-:|

